build/images/css-logo.svg

<?xml version="1.0" encoding="UTF-8"?>
<svg xmlns="http://www.w3.org/2000/svg" xmlns:xlink="http://www.w3.org/1999/xlink" width="58pt" height="81pt" viewBox="0 0 58 81" version="1.1">
<g id="surface1">
<path style=" stroke:none;fill-rule:nonzero;fill:rgb(14.901961%,30.196078%,89.411765%);fill-opacity:1;" d="M 57.957031 15.917969 L 52.675781 74.484375 L 28.941406 81 L 5.273438 74.496094 L 0 15.917969 Z M 57.957031 15.917969 "/>
<path style=" stroke:none;fill-rule:nonzero;fill:rgb(16.078431%,39.607843%,94.509804%);fill-opacity:1;" d="M 48.15625 70.753906 L 52.667969 20.707031 L 28.980469 20.707031 L 28.980469 76.019531 Z M 48.15625 70.753906 "/>
<path style=" stroke:none;fill-rule:nonzero;fill:rgb(92.156863%,92.156863%,92.156863%);fill-opacity:1;" d="M 12.089844 42.433594 L 12.742188 49.617188 L 28.980469 49.617188 L 28.980469 42.433594 Z M 12.089844 42.433594 "/>
<path style=" stroke:none;fill-rule:nonzero;fill:rgb(92.156863%,92.156863%,92.156863%);fill-opacity:1;" d="M 28.980469 27.890625 L 10.785156 27.890625 L 11.445312 35.074219 L 28.980469 35.074219 Z M 28.980469 27.890625 "/>
<path style=" stroke:none;fill-rule:nonzero;fill:rgb(92.156863%,92.156863%,92.156863%);fill-opacity:1;" d="M 28.980469 68.566406 L 28.980469 61.089844 L 28.945312 61.097656 L 20.867188 58.9375 L 20.351562 53.207031 L 13.066406 53.207031 L 14.082031 64.488281 L 28.945312 68.574219 Z M 28.980469 68.566406 "/>
<path style=" stroke:none;fill-rule:nonzero;fill:rgb(0%,0%,0%);fill-opacity:1;" d="M 13.640625 0 L 22.429688 0 L 22.429688 3.636719 L 17.316406 3.636719 L 17.316406 7.277344 L 22.429688 7.277344 L 22.429688 10.914062 L 13.640625 10.914062 Z M 13.640625 0 "/>
<path style=" stroke:none;fill-rule:nonzero;fill:rgb(0%,0%,0%);fill-opacity:1;" d="M 24.183594 0 L 32.972656 0 L 32.972656 3.164062 L 27.859375 3.164062 L 27.859375 3.796875 L 32.972656 3.796875 L 32.972656 11.074219 L 24.183594 11.074219 L 24.183594 7.75 L 29.296875 7.75 L 29.296875 7.117188 L 24.183594 7.117188 Z M 24.183594 0 "/>
<path style=" stroke:none;fill-rule:nonzero;fill:rgb(0%,0%,0%);fill-opacity:1;" d="M 34.730469 0 L 43.519531 0 L 43.519531 3.164062 L 38.40625 3.164062 L 38.40625 3.796875 L 43.519531 3.796875 L 43.519531 11.074219 L 34.730469 11.074219 L 34.730469 7.75 L 39.84375 7.75 L 39.84375 7.117188 L 34.730469 7.117188 Z M 34.730469 0 "/>
<path style=" stroke:none;fill-rule:nonzero;fill:rgb(100%,100%,100%);fill-opacity:1;" d="M 37.886719 49.617188 L 37.046875 58.933594 L 28.953125 61.097656 L 28.953125 68.570312 L 43.828125 64.488281 L 43.9375 63.273438 L 45.640625 44.363281 L 45.820312 42.433594 L 47.128906 27.890625 L 28.953125 27.890625 L 28.953125 35.074219 L 39.175781 35.074219 L 38.515625 42.433594 L 28.953125 42.433594 L 28.953125 49.617188 Z M 37.886719 49.617188 "/>
</g>
</svg>

<svg xmlns="http://www.w3.org/2000/svg" width="58pt" height="108" viewBox="0 0 58 81"><path d="M57.957 15.918l-5.281 58.566L28.94 81 5.273 74.496 0 15.918zm0 0" fill="#264de4"/><path d="M48.156 70.754l4.512-50.047H28.98V76.02zm0 0" fill="#2965f1"/><path d="M12.09 42.434l.652 7.183H28.98v-7.183zM28.98 27.89H10.785l.66 7.184H28.98zm0 40.676V61.09l-.035.008-8.078-2.16-.515-5.731h-7.286l1.016 11.281 14.863 4.086zm0 0" fill="#ebebeb"/><path d="M13.64 0h8.79v3.637h-5.114v3.64h5.114v3.637h-8.79zm10.544 0h8.789v3.164h-5.114v.633h5.114v7.277h-8.79V7.75h5.114v-.633h-5.113zM34.73 0h8.79v3.164h-5.114v.633h5.114v7.277h-8.79V7.75h5.114v-.633H34.73zm0 0"/><path d="M37.887 49.617l-.84 9.317-8.094 2.164v7.472l14.875-4.082.11-1.215 1.703-18.91.18-1.93 1.308-14.542H28.953v7.183h10.223l-.66 7.36h-9.563v7.183zm0 0" fill="#fff"/></svg>
